X: 20613
T: John Patrick
R: jig
M: 6/8
K: Amajor
|:AAA cee|faa f2 e|faa eaa|fec B2 e|
AAA cee|faa f2e|fae fec|B3 A2 e:|
faa eaa|faa f2e|faa eaa|fec B2e|
faa eaa|faa f2e|fae fec|B3 A2e|
faa eaa|faa f2e|faa eaa|fec B2e|
AAA cee|faa f2e|fae fec|B3 A2||

